src/assets/Imgs/dark/vault/balance.svg

<svg fill="none" height="54" viewBox="0 0 54 54" width="54" xmlns="http://www.w3.org/2000/svg" xmlns:xlink="http://www.w3.org/1999/xlink"><linearGradient id="a" gradientUnits="userSpaceOnUse" x1="27" x2="27" y1="0" y2="126.5"><stop offset="0" stop-color="#ffe071"/><stop offset="1" stop-color="#5200ff"/></linearGradient><linearGradient id="b" gradientUnits="userSpaceOnUse" x1="29" x2="29.7273" y1="28.5" y2="53.0239"><stop offset="0" stop-color="#ffe071"/><stop offset="1" stop-color="#ffe071"/></linearGradient><rect fill="url(#a)" fill-opacity=".3" height="54" rx="16" width="54"/><path d="m21.5 38.5167c0 1.2166.3667 2.3166 1.05 3.2666-4.4667-.2834-8.55-1.9166-8.55-4.9333v-1.4667c1.75 1.3667 4.3333 2.2834 7.5 2.5834zm.0666-6.7834c-.0166.0167-.0166.0333-.0166.05-.0333.1666-.05.3334-.05.5001v3.1833c-4.0333-.4667-7.5-2.0667-7.5-4.85v-1.4667c1.75 1.3834 4.35 2.3 7.55 2.5833zm6.5001-6.0999c-2.5334.7833-4.5167 2.0666-5.6167 3.6666-4.4333-.2834-8.45-1.9166-8.45-4.9166v-1.1334c2.1833 1.7166 5.6833 2.7166 10 2.7166 1.45 0 2.8167-.1166 4.0667-.3332zm5.9333-2.3834v1.1334c0 .15-.0167.2833-.0334.4166-1.3166 0-2.5666.1166-3.7333.3166 1.5-.45 2.7667-1.0833 3.7667-1.8666zm-10-9.75c-5 0-10 1.6667-10 4.9833 0 3.35 5 4.9833 10 4.9833s10-1.6333 10-4.9833c0-3.3166-5-4.9833-10-4.9833zm10 26.2667c-4.1833 0-7.75-1.1-10-2.8833v1.6333c0 3.3166 5 4.9833 10 4.9833s10-1.6667 10-4.9833v-1.6333c-2.25 1.7833-5.8167 2.8833-10 2.8833zm0-12.4667c-5.5167 0-10 2.2334-10 4.9834s4.4833 4.9833 10 4.9833 10-2.2333 10-4.9833-4.4833-4.9834-10-4.9834z" fill="url(#b)"/></svg>

<svg width="54" height="54" viewBox="0 0 54 54" fill="none" xmlns="http://www.w3.org/2000/svg">
<g id="vault">
<rect id="Rectangle 1284" width="54" height="54" rx="16" fill="url(#paint0_linear_188_1567)" fill-opacity="0.3"/>
<path id="coins" d="M21.5 38.5167C21.5 39.7333 21.8667 40.8333 22.55 41.7833C18.0833 41.4999 14 39.8667 14 36.85V35.3833C15.75 36.75 18.3333 37.6667 21.5 37.9667V38.5167ZM21.5666 31.7333C21.55 31.75 21.55 31.7666 21.55 31.7833C21.5167 31.9499 21.5 32.1167 21.5 32.2834V35.4667C17.4667 35 14 33.4 14 30.6167V29.15C15.75 30.5334 18.35 31.45 21.55 31.7333H21.5666V31.7333ZM28.0667 25.6334C25.5333 26.4167 23.55 27.7 22.45 29.3C18.0167 29.0166 14 27.3834 14 24.3834V23.25C16.1833 24.9666 19.6833 25.9666 24 25.9666C25.45 25.9666 26.8167 25.85 28.0667 25.6334ZM34 23.25V24.3834C34 24.5334 33.9833 24.6667 33.9666 24.8C32.65 24.8 31.4 24.9166 30.2333 25.1166C31.7333 24.6666 33 24.0333 34 23.25ZM24 13.5C19 13.5 14 15.1667 14 18.4833C14 21.8333 19 23.4666 24 23.4666C29 23.4666 34 21.8333 34 18.4833C34 15.1667 29 13.5 24 13.5ZM34 39.7667C29.8167 39.7667 26.25 38.6667 24 36.8834V38.5167C24 41.8333 29 43.5 34 43.5C39 43.5 44 41.8333 44 38.5167V36.8834C41.75 38.6667 38.1833 39.7667 34 39.7667ZM34 27.3C28.4833 27.3 24 29.5334 24 32.2834C24 35.0334 28.4833 37.2667 34 37.2667C39.5167 37.2667 44 35.0334 44 32.2834C44 29.5334 39.5167 27.3 34 27.3Z" fill="url(#paint1_linear_188_1567)"/>
</g>
<defs>
<linearGradient id="paint0_linear_188_1567" x1="27" y1="0" x2="27" y2="126.5" gradientUnits="userSpaceOnUse">
<stop stop-color="#FFE071"/>
<stop offset="1" stop-color="#5200FF"/>
</linearGradient>
<linearGradient id="paint1_linear_188_1567" x1="29" y1="28.5" x2="29.7273" y2="53.0239" gradientUnits="userSpaceOnUse">
<stop stop-color="#FFE071"/>
<stop offset="1" stop-color="#FFE071"/>
</linearGradient>
</defs>
</svg>
